CN3T1/201/img/estomago.svg

<svg clip-rule="evenodd" fill-rule="evenodd" stroke-linecap="round" stroke-linejoin="round" stroke-miterlimit="10" viewBox="0 0 386 348" xmlns="http://www.w3.org/2000/svg"><g transform="matrix(1.93547 0 0 1.93547 -183.049 -135.663)"><path d="m257.5 200.3c.13-.14.24-.29.37-.44.67-.78 1.31-1.57 1.94-2.37.24-.3.46-.6.69-.9.52-.67 1.02-1.35 1.5-2.03.22-.3.44-.61.65-.91.56-.8 1.09-1.6 1.61-2.41.11-.16.22-.33.32-.49.62-.97 1.2-1.95 1.76-2.93.15-.26.28-.51.43-.77.41-.74.81-1.48 1.19-2.22.08-.15.17-.3.24-.45-.01.02-.03.04-.04.06 4.97-9.81 7.37-19.9 7.37-29.09 0-60.65-53.57-57.16-70.8-22.76-.01-.01-.01-.01-.02-.02-.18.33-.33.66-.44.89-.73-.29-1.88-1.11-4.28-1.34-3.95-2.48-9.84-7.69-9.84-18.81v-32.64c-1.72-3.41-15.02-2.72-16.55-.18v35.47c0 16.16 11.28 28.28 17.84 33.7.15.29.3.54.46.78l-.01.01c.02.03.04.05.05.07.08.12.16.21.23.32.1.14.21.28.31.4.08.1.17.18.25.27.1.1.2.2.3.29.08.07.17.14.25.2.1.08.19.15.29.21.08.05.16.1.23.15.09.05.18.1.27.15.07.03.14.07.2.1.09.04.17.07.25.09.05.02.11.04.16.05.09.02.16.04.23.05.03.01.07.02.1.02.09.02.17.02.23.02 0 .43-.08 3.39-.08 5.75-.38 13.92-2.25 26.44-7.47 32.47-1.73 2-3.04 1.9-4.84 1.56-5.15-.98-8.86 1.51-10.58 2.25-1.71.74-2.68.37-4.34-1-5.5-4.54-12.84-3.34-18.54-1.95-.21.04-.53.13-.76.19-1.31-.42-2.54-.54-4.42.44-12.15.61-34.77 14.31-26.71 42.94h-.02c.04.13.09.28.13.41.35 1.2.73 2.41 1.19 3.66 1.53 2.54 14.83 3.23 16.55-.18-.53-1.31-.97-2.56-1.37-3.77-.1-.31-.2-.63-.3-.93-.34-1.1-.64-2.17-.88-3.2-.02-.09-.05-.18-.07-.27-.25-1.1-.42-2.13-.55-3.13-.03-.26-.06-.51-.09-.75-.09-.87-.15-1.7-.16-2.5 0-.12-.01-.24-.01-.36 0-.88.07-1.71.17-2.5.03-.19.06-.38.09-.57.11-.66.25-1.3.43-1.89.03-.11.06-.24.1-.35.22-.67.5-1.3.81-1.88.07-.13.15-.26.23-.39.28-.48.59-.92.93-1.33 1.34-1.61 3.09-2.72 5.19-3.29 1.02.22 2.06-.06 2.79-.35.09 1.01.79 2.17 1.53 2.7.53.74 2.12 4.66 5.85 7.86-.02-.01-.03-.01-.05-.02.13.11.27.21.4.32.14.11.28.23.42.34.29.22.59.43.9.64.11.08.22.16.34.23.43.28.89.54 1.36.78.12.06.25.11.37.17.37.18.75.35 1.15.51.18.07.38.14.57.21.36.13.73.25 1.11.36.21.06.42.12.64.17.41.1.84.19 1.27.27.2.04.4.08.61.11.65.1 1.32.17 2.02.21 1.86.09 3.36.3 5.05 2.71.77 1.24 1.76 2.4 2.94 3.45 9.46 9.41 24.89 9.71 37.94.37 2.47-1.77 6.29-4.83 9.18-5.85 1.49-.52 2.94-1.08 4.37-1.64.44-.17.87-.36 1.3-.54 1-.41 1.99-.84 2.97-1.27.46-.2.91-.41 1.36-.62 1.02-.47 2.02-.96 3.01-1.46.33-.16.66-.32.98-.49 1.28-.67 2.54-1.35 3.77-2.05.27-.15.53-.32.8-.47.96-.56 1.91-1.14 2.83-1.72.39-.24.76-.49 1.14-.74.82-.53 1.62-1.07 2.41-1.62.35-.25.71-.49 1.05-.74.97-.7 1.93-1.41 2.86-2.14.11-.09.24-.18.35-.26 1.04-.82 2.04-1.65 3.03-2.5.28-.24.56-.49.84-.74.7-.62 1.39-1.24 2.06-1.87.31-.29.61-.58.92-.87.67-.65 1.32-1.3 1.96-1.97.24-.24.48-.49.71-.73.9-.89 1.73-1.8 2.52-2.72z" fill="none" stroke="#252723" stroke-width="4.57"/><g fill-rule="nonzero"><path d="m167.96 193.87c-5.83-4.8-13.71-3.18-19.53-1.7-5.74 1.46-7.09 15.04-4.19 22.45.89 1.26 4.78 11.57 16.97 12.17 1.86.09 3.5.2 5.05 2.71 6.07 9.84 26.38 14.19 40.89 3.82 2.47-1.77 6.29-4.83 9.18-5.85 40.93-14.36 59.21-46.68 59.21-72.15 0-61.17-54.51-57.12-71.26-21.89-3.15 6.62-9 7.38-9 19.39v1.34c-.09 15.65-1.78 30.22-7.55 36.88-1.73 2-3.04 1.9-4.84 1.56-5.15-.98-8.86 1.51-10.58 2.25-1.71.76-2.68.39-4.35-.98z" fill="#cc7e88"/><path d="m165.93 194.34c-5.95-5.15-11.98-1.9-13.74 4.61-1.2 4.43.94 10.96 4 7.24 3.29-3.99 6.34-1.2 9.43-.09 4.1 1.47 5.44-7.32.31-11.76z" fill="#cf8592"/><path d="m187.11 196.25c-9.32-4.16-13.77 2.64-13.13 10.59.44 5.41 5.12 11.82 7.04 6.47 2.06-5.75 6.56-3.86 10.44-3.86 5.14-.01 2.96-9.94-4.35-13.2z" fill="#cf8592"/><path d="m190.16 80.64c-.72 3.6-15.96 3.08-16.55-.18 1.53-2.54 14.84-3.22 16.55.18z" fill="#eacecd"/><path d="m188.01 80.34c-.79 1.87-11.05 1.34-12.09.1 1-1.39 10.73-1.65 12.09-.1z" fill="#8f273f"/><path d="m204.29 133.44c-.73-.29-2.46-.2-4.28-1.34-3.95-2.48-9.84-7.69-9.84-18.81v-32.64c-1.74 3.04-14.97 2.3-16.55-.18v35.47c0 16.16 11.28 28.28 17.84 33.7 1.41 2.8 3.33 3.18 3.83 3.19 6.54.18 13.62-15.64 9-19.39z" fill="#cc7e88"/><path d="m204.29 133.44c-.73-.29-2.46-.2-4.28-1.34-3.95-2.48-9.84-7.69-9.84-18.81v-32.64c-.6 1.05-2.58 1.65-4.98 1.88v33.99c0 11.11 7.08 13.76 10.58 18.74 1.89 2.83 2.09 5.93.87 8.89-1.09 2.67-2.73 4.71-4.73 6.28 1.34 2.08 2.93 2.39 3.37 2.4 6.55.18 13.63-15.64 9.01-19.39z" fill="#ca7480"/><path d="m204.72 132.55c-.18.33-.33.66-.44.89 2.3 7.57-2.37 17.54-9 19.39 0 .45-.08 3.59-.08 5.98 1.06-2.83 3.61-5.13 5.18-6.21 6.22-4.3 9.81-16.11 4.34-20.05z" fill="#c56570"/><path d="m204.29 133.44c-.73-.29-1.88-1.11-4.28-1.34 2.3 7.57-1.91 15.69-8.55 17.54 1.41 2.8 3.33 3.18 3.83 3.19 6.54.18 13.62-15.64 9-19.39z" fill="#cc7e88"/><path d="m273.06 137.17c-.7 22.14-3.27 34.3-13.79 47.64-12.75 16.17-42.59 28.96-61.18 16.64-3.55-2.35-4.01-1.65-2.92.02 5.66 8.68 5.19 17.24 3.91 20.88-3.24 9.2-20.81 10.17-24.32-2.49-2.25-8.13-.88-12.46-2.56-17.79-.29-.91-1.36-2.58-1.35.01.07 17.38-8.01 18.3-13.27 17.04-7.17-1.72-9.8-8.32-9.06-14.38-3.39 1.77-6.54 2.93-5.8 7.19.09.52.92 1.84 1.53 2.7.89 1.26 4.78 11.57 16.97 12.17 1.86.09 3.5.2 5.05 2.71 6.07 9.84 26.38 14.19 40.89 3.82 2.47-1.77 6.29-4.83 9.18-5.85 40.93-14.36 59.21-46.68 59.21-72.15-.01-6.87-.9-12.92-2.49-18.16z" fill="#ca7480"/><path d="m214.54 215.32c-4.51-.11-6.65 1.24-7.86 4.47-4.47 16.43-26.11 20.95-37.42 4.58-1-1.44-2.34-1.12-3.1-.81-4.65 1.92-10 1.65-16.11-1.1 2.57 2.21 6.17 4.09 11.16 4.34 1.86.09 3.36.3 5.05 2.71 8.91 12.71 26.38 14.19 40.89 3.82 2.47-1.77 6.29-4.83 9.18-5.85 26.19-9.19 43.1-25.72 51.89-43.11-9.74 13.06-27.61 31.56-53.68 30.95z" fill="#c56570"/><path d="m198.92 189.41c-1.59-10.67-1.49-25.24 4.26-32.88 6-7.98 6.93-10.13 8.23-17.55 1.78-10.13 5.69-20.96 17.2-22.82 8.21-1.32 21.83 3.29 21.83 22.98 0 32.05-13.48 45.4-25.34 54.2-8.87 6.59-24.17 9.57-26.18-3.93z" fill="#cf8592"/><path d="m135.39 239.38c-1.62-3.94-15.96-3.08-16.55.18 1.53 2.54 14.83 3.23 16.55-.18z" fill="#b93c49"/><path d="m133.24 239.69c-.79-1.87-11.05-1.34-12.09-.1.99 1.39 10.72 1.64 12.09.1z" fill="#741926"/><path d="m142.72 211.93c-1.11-8.15 5.47-19.7 5.95-19.82.23-.06.55-.15.76-.19 3.96 1.42.12 13.5-4.2 19.4-.76 1.03-1.3 1.35-.97 3.31-.75-.54-1.45-1.69-1.54-2.7z" fill="#c56570"/><path d="m142.76 211.91c-.73.29-1.8.58-2.83.36-7.68 2.07-10.98 11.16-4.54 27.11-1.74-3.04-14.97-2.3-16.55.18-11.51-31.42 12.69-46.37 25.41-47.01 1.88-.98 3.11-.86 4.42-.44 2.94.95-1.87 17.78-5.91 19.8z" fill="#cc7e88"/><path d="m126.06 229.96c-1.53 3.37-4.93 5.04-8.53 5.53.37 1.32.81 2.68 1.32 4.07 1.58-2.48 14.81-3.22 16.55-.18-4.74-11.76-4.2-19.79-.51-24.03-5.21 2.21-6.53 9.57-8.83 14.61z" fill="#ca7480"/><path d="m142.76 211.91c-.73.29-1.8.58-2.83.36 2.83-3.77 6.74-16.75 4.31-19.72 1.88-.98 3.11-.86 4.42-.44 2.95.95-1.86 17.78-5.9 19.8z" fill="#ca7480"/><path d="m145.88 194.94c0 4.35-.52 7.6-2.76 13.29 2.02-2.51 4.54-7.32 4.54-12.26-.01-2.53-1.78-3.15-1.78-1.03z" fill="#cc7e88"/></g></g></svg>

<?xml version="1.0" encoding="UTF-8" standalone="no"?>
<!DOCTYPE svg PUBLIC "-//W3C//DTD SVG 1.1//EN" "http://www.w3.org/Graphics/SVG/1.1/DTD/svg11.dtd">
<svg width="100%" height="100%" viewBox="0 0 386 348" version="1.1" xmlns="http://www.w3.org/2000/svg" xmlns:xlink="http://www.w3.org/1999/xlink" xml:space="preserve" xmlns:serif="http://www.serif.com/" style="fill-rule:evenodd;clip-rule:evenodd;stroke-linecap:round;stroke-linejoin:round;stroke-miterlimit:10;">
    <g>
        <g transform="matrix(1.93547,0,0,1.93547,-183.049,-135.663)">
            <path d="M257.5,200.3C257.63,200.16 257.74,200.01 257.87,199.86C258.54,199.08 259.18,198.29 259.81,197.49C260.05,197.19 260.27,196.89 260.5,196.59C261.02,195.92 261.52,195.24 262,194.56C262.22,194.26 262.44,193.95 262.65,193.65C263.21,192.85 263.74,192.05 264.26,191.24C264.37,191.08 264.48,190.91 264.58,190.75C265.2,189.78 265.78,188.8 266.34,187.82C266.49,187.56 266.62,187.31 266.77,187.05C267.18,186.31 267.58,185.57 267.96,184.83C268.04,184.68 268.13,184.53 268.2,184.38C268.19,184.4 268.17,184.42 268.16,184.44C273.13,174.63 275.53,164.54 275.53,155.35C275.53,94.7 221.96,98.19 204.73,132.59C204.72,132.58 204.72,132.58 204.71,132.57C204.53,132.9 204.38,133.23 204.27,133.46C203.54,133.17 202.39,132.35 199.99,132.12C196.04,129.64 190.15,124.43 190.15,113.31L190.15,80.67C188.43,77.26 175.13,77.95 173.6,80.49L173.6,115.96C173.6,132.12 184.88,144.24 191.44,149.66C191.59,149.95 191.74,150.2 191.9,150.44L191.89,150.45C191.91,150.48 191.93,150.5 191.94,150.52C192.02,150.64 192.1,150.73 192.17,150.84C192.27,150.98 192.38,151.12 192.48,151.24C192.56,151.34 192.65,151.42 192.73,151.51C192.83,151.61 192.93,151.71 193.03,151.8C193.11,151.87 193.2,151.94 193.28,152C193.38,152.08 193.47,152.15 193.57,152.21C193.65,152.26 193.73,152.31 193.8,152.36C193.89,152.41 193.98,152.46 194.07,152.51C194.14,152.54 194.21,152.58 194.27,152.61C194.36,152.65 194.44,152.68 194.52,152.7C194.57,152.72 194.63,152.74 194.68,152.75C194.77,152.77 194.84,152.79 194.91,152.8C194.94,152.81 194.98,152.82 195.01,152.82C195.1,152.84 195.18,152.84 195.24,152.84C195.24,153.27 195.16,156.23 195.16,158.59C194.78,172.51 192.91,185.03 187.69,191.06C185.96,193.06 184.65,192.96 182.85,192.62C177.7,191.64 173.99,194.13 172.27,194.87C170.56,195.61 169.59,195.24 167.93,193.87C162.43,189.33 155.09,190.53 149.39,191.92C149.18,191.96 148.86,192.05 148.63,192.11C147.32,191.69 146.09,191.57 144.21,192.55C132.06,193.16 109.44,206.86 117.5,235.49L117.48,235.49C117.52,235.62 117.57,235.77 117.61,235.9C117.96,237.1 118.34,238.31 118.8,239.56C120.33,242.1 133.63,242.79 135.35,239.38C134.82,238.07 134.38,236.82 133.98,235.61C133.88,235.3 133.78,234.98 133.68,234.68C133.34,233.58 133.04,232.51 132.8,231.48C132.78,231.39 132.75,231.3 132.73,231.21C132.48,230.11 132.31,229.08 132.18,228.08C132.15,227.82 132.12,227.57 132.09,227.33C132,226.46 131.94,225.63 131.93,224.83C131.93,224.71 131.92,224.59 131.92,224.47C131.92,223.59 131.99,222.76 132.09,221.97C132.12,221.78 132.15,221.59 132.18,221.4C132.29,220.74 132.43,220.1 132.61,219.51C132.64,219.4 132.67,219.27 132.71,219.16C132.93,218.49 133.21,217.86 133.52,217.28C133.59,217.15 133.67,217.02 133.75,216.89C134.03,216.41 134.34,215.97 134.68,215.56C136.02,213.95 137.77,212.84 139.87,212.27C140.89,212.49 141.93,212.21 142.66,211.92C142.75,212.93 143.45,214.09 144.19,214.62C144.72,215.36 146.31,219.28 150.04,222.48C150.02,222.47 150.01,222.47 149.99,222.46C150.12,222.57 150.26,222.67 150.39,222.78C150.53,222.89 150.67,223.01 150.81,223.12C151.1,223.34 151.4,223.55 151.71,223.76C151.82,223.84 151.93,223.92 152.05,223.99C152.48,224.27 152.94,224.53 153.41,224.77C153.53,224.83 153.66,224.88 153.78,224.94C154.15,225.12 154.53,225.29 154.93,225.45C155.11,225.52 155.31,225.59 155.5,225.66C155.86,225.79 156.23,225.91 156.61,226.02C156.82,226.08 157.03,226.14 157.25,226.19C157.66,226.29 158.09,226.38 158.52,226.46C158.72,226.5 158.92,226.54 159.13,226.57C159.78,226.67 160.45,226.74 161.15,226.78C163.01,226.87 164.51,227.08 166.2,229.49C166.97,230.73 167.96,231.89 169.14,232.94C178.6,242.35 194.03,242.65 207.08,233.31C209.55,231.54 213.37,228.48 216.26,227.46C217.75,226.94 219.2,226.38 220.63,225.82C221.07,225.65 221.5,225.46 221.93,225.28C222.93,224.87 223.92,224.44 224.9,224.01C225.36,223.81 225.81,223.6 226.26,223.39C227.28,222.92 228.28,222.43 229.27,221.93C229.6,221.77 229.93,221.61 230.25,221.44C231.53,220.77 232.79,220.09 234.02,219.39C234.29,219.24 234.55,219.07 234.82,218.92C235.78,218.36 236.73,217.78 237.65,217.2C238.04,216.96 238.41,216.71 238.79,216.46C239.61,215.93 240.41,215.39 241.2,214.84C241.55,214.59 241.91,214.35 242.25,214.1C243.22,213.4 244.18,212.69 245.11,211.96C245.22,211.87 245.35,211.78 245.46,211.7C246.5,210.88 247.5,210.05 248.49,209.2C248.77,208.96 249.05,208.71 249.33,208.46C250.03,207.84 250.72,207.22 251.39,206.59C251.7,206.3 252,206.01 252.31,205.72C252.98,205.07 253.63,204.42 254.27,203.75C254.51,203.51 254.75,203.26 254.98,203.02C255.88,202.13 256.71,201.22 257.5,200.3Z" style="fill:none;fill-rule:nonzero;stroke:rgb(37,39,35);stroke-width:4.57px;"/>
        </g>
        <g id="XMLID_33_" transform="matrix(1.93547,0,0,1.93547,-183.049,-135.663)">
            <path id="XMLID_59_" d="M167.96,193.87C162.13,189.07 154.25,190.69 148.43,192.17C142.69,193.63 141.34,207.21 144.24,214.62C145.13,215.88 149.02,226.19 161.21,226.79C163.07,226.88 164.71,226.99 166.26,229.5C172.33,239.34 192.64,243.69 207.15,233.32C209.62,231.55 213.44,228.49 216.33,227.47C257.26,213.11 275.54,180.79 275.54,155.32C275.54,94.15 221.03,98.2 204.28,133.43C201.13,140.05 195.28,140.81 195.28,152.82L195.28,154.16C195.19,169.81 193.5,184.38 187.73,191.04C186,193.04 184.69,192.94 182.89,192.6C177.74,191.62 174.03,194.11 172.31,194.85C170.6,195.61 169.63,195.24 167.96,193.87Z" style="fill:rgb(204,126,136);fill-rule:nonzero;"/>
            <path id="XMLID_54_" d="M165.93,194.34C159.98,189.19 153.95,192.44 152.19,198.95C150.99,203.38 153.13,209.91 156.19,206.19C159.48,202.2 162.53,204.99 165.62,206.1C169.72,207.57 171.06,198.78 165.93,194.34Z" style="fill:rgb(207,133,146);fill-rule:nonzero;"/>
            <path id="XMLID_53_" d="M187.11,196.25C177.79,192.09 173.34,198.89 173.98,206.84C174.42,212.25 179.1,218.66 181.02,213.31C183.08,207.56 187.58,209.45 191.46,209.45C196.6,209.44 194.42,199.51 187.11,196.25Z" style="fill:rgb(207,133,146);fill-rule:nonzero;"/>
            <g id="XMLID_45_">
                <g id="XMLID_48_">
                    <path id="XMLID_52_" d="M190.16,80.64C189.44,84.24 174.2,83.72 173.61,80.46C175.14,77.92 188.45,77.24 190.16,80.64Z" style="fill:rgb(234,206,205);fill-rule:nonzero;"/>
                    <path id="XMLID_51_" d="M188.01,80.34C187.22,82.21 176.96,81.68 175.92,80.44C176.92,79.05 186.65,78.79 188.01,80.34Z" style="fill:rgb(143,39,63);fill-rule:nonzero;"/>
                    <path id="XMLID_50_" d="M204.29,133.44C203.56,133.15 201.83,133.24 200.01,132.1C196.06,129.62 190.17,124.41 190.17,113.29L190.17,80.65C188.43,83.69 175.2,82.95 173.62,80.47L173.62,115.94C173.62,132.1 184.9,144.22 191.46,149.64C192.87,152.44 194.79,152.82 195.29,152.83C201.83,153.01 208.91,137.19 204.29,133.44Z" style="fill:rgb(204,126,136);fill-rule:nonzero;"/>
                    <path id="XMLID_49_" d="M204.29,133.44C203.56,133.15 201.83,133.24 200.01,132.1C196.06,129.62 190.17,124.41 190.17,113.29L190.17,80.65C189.57,81.7 187.59,82.3 185.19,82.53L185.19,116.52C185.19,127.63 192.27,130.28 195.77,135.26C197.66,138.09 197.86,141.19 196.64,144.15C195.55,146.82 193.91,148.86 191.91,150.43C193.25,152.51 194.84,152.82 195.28,152.83C201.83,153.01 208.91,137.19 204.29,133.44Z" style="fill:rgb(202,116,128);fill-rule:nonzero;"/>
                </g>
                <path id="XMLID_47_" d="M204.72,132.55C204.54,132.88 204.39,133.21 204.28,133.44C206.58,141.01 201.91,150.98 195.28,152.83C195.28,153.28 195.2,156.42 195.2,158.81C196.26,155.98 198.81,153.68 200.38,152.6C206.6,148.3 210.19,136.49 204.72,132.55Z" style="fill:rgb(197,101,112);fill-rule:nonzero;"/>
                <path id="XMLID_46_" d="M204.29,133.44C203.56,133.15 202.41,132.33 200.01,132.1C202.31,139.67 198.1,147.79 191.46,149.64C192.87,152.44 194.79,152.82 195.29,152.83C201.83,153.01 208.91,137.19 204.29,133.44Z" style="fill:rgb(204,126,136);fill-rule:nonzero;"/>
            </g>
            <path id="XMLID_44_" d="M273.06,137.17C272.36,159.31 269.79,171.47 259.27,184.81C246.52,200.98 216.68,213.77 198.09,201.45C194.54,199.1 194.08,199.8 195.17,201.47C200.83,210.15 200.36,218.71 199.08,222.35C195.84,231.55 178.27,232.52 174.76,219.86C172.51,211.73 173.88,207.4 172.2,202.07C171.91,201.16 170.84,199.49 170.85,202.08C170.92,219.46 162.84,220.38 157.58,219.12C150.41,217.4 147.78,210.8 148.52,204.74C145.13,206.51 141.98,207.67 142.72,211.93C142.81,212.45 143.64,213.77 144.25,214.63C145.14,215.89 149.03,226.2 161.22,226.8C163.08,226.89 164.72,227 166.27,229.51C172.34,239.35 192.65,243.7 207.16,233.33C209.63,231.56 213.45,228.5 216.34,227.48C257.27,213.12 275.55,180.8 275.55,155.33C275.54,148.46 274.65,142.41 273.06,137.17Z" style="fill:rgb(202,116,128);fill-rule:nonzero;"/>
            <path id="XMLID_43_" d="M214.54,215.32C210.03,215.21 207.89,216.56 206.68,219.79C202.21,236.22 180.57,240.74 169.26,224.37C168.26,222.93 166.92,223.25 166.16,223.56C161.51,225.48 156.16,225.21 150.05,222.46C152.62,224.67 156.22,226.55 161.21,226.8C163.07,226.89 164.57,227.1 166.26,229.51C175.17,242.22 192.64,243.7 207.15,233.33C209.62,231.56 213.44,228.5 216.33,227.48C242.52,218.29 259.43,201.76 268.22,184.37C258.48,197.43 240.61,215.93 214.54,215.32Z" style="fill:rgb(197,101,112);fill-rule:nonzero;"/>
            <path id="XMLID_42_" d="M198.92,189.41C197.33,178.74 197.43,164.17 203.18,156.53C209.18,148.55 210.11,146.4 211.41,138.98C213.19,128.85 217.1,118.02 228.61,116.16C236.82,114.84 250.44,119.45 250.44,139.14C250.44,171.19 236.96,184.54 225.1,193.34C216.23,199.93 200.93,202.91 198.92,189.41Z" style="fill:rgb(207,133,146);fill-rule:nonzero;"/>
            <g id="XMLID_34_">
                <path id="XMLID_41_" d="M135.39,239.38C133.77,235.44 119.43,236.3 118.84,239.56C120.37,242.1 133.67,242.79 135.39,239.38Z" style="fill:rgb(185,60,73);fill-rule:nonzero;"/>
                <path id="XMLID_40_" d="M133.24,239.69C132.45,237.82 122.19,238.35 121.15,239.59C122.14,240.98 131.87,241.23 133.24,239.69Z" style="fill:rgb(116,25,38);fill-rule:nonzero;"/>
                <path id="XMLID_39_" d="M142.72,211.93C141.61,203.78 148.19,192.23 148.67,192.11C148.9,192.05 149.22,191.96 149.43,191.92C153.39,193.34 149.55,205.42 145.23,211.32C144.47,212.35 143.93,212.67 144.26,214.63C143.51,214.09 142.81,212.94 142.72,211.93Z" style="fill:rgb(197,101,112);fill-rule:nonzero;"/>
                <path id="XMLID_38_" d="M142.76,211.91C142.03,212.2 140.96,212.49 139.93,212.27C132.25,214.34 128.95,223.43 135.39,239.38C133.65,236.34 120.42,237.08 118.84,239.56C107.33,208.14 131.53,193.19 144.25,192.55C146.13,191.57 147.36,191.69 148.67,192.11C151.61,193.06 146.8,209.89 142.76,211.91Z" style="fill:rgb(204,126,136);fill-rule:nonzero;"/>
                <path id="XMLID_37_" d="M126.06,229.96C124.53,233.33 121.13,235 117.53,235.49C117.9,236.81 118.34,238.17 118.85,239.56C120.43,237.08 133.66,236.34 135.4,239.38C130.66,227.62 131.2,219.59 134.89,215.35C129.68,217.56 128.36,224.92 126.06,229.96Z" style="fill:rgb(202,116,128);fill-rule:nonzero;"/>
                <path id="XMLID_36_" d="M142.76,211.91C142.03,212.2 140.96,212.49 139.93,212.27C142.76,208.5 146.67,195.52 144.24,192.55C146.12,191.57 147.35,191.69 148.66,192.11C151.61,193.06 146.8,209.89 142.76,211.91Z" style="fill:rgb(202,116,128);fill-rule:nonzero;"/>
                <path id="XMLID_35_" d="M145.88,194.94C145.88,199.29 145.36,202.54 143.12,208.23C145.14,205.72 147.66,200.91 147.66,195.97C147.65,193.44 145.88,192.82 145.88,194.94Z" style="fill:rgb(204,126,136);fill-rule:nonzero;"/>
            </g>
        </g>
    </g>
</svg>
